( Made using CamBam - http://www.cambam.co.uk )
( 808_tom_panel 5/6/2016 10:59:39 PM )
( T3 : 3.175 )
G21 G90 G64 G40
G0 Z3.0
( T3 : 3.175 )
T3 M6
( holes )
G17
M3 S1000
G0 X7.5292 Y3.3088
G0 Z3.0
G0 X7.5417 Y3.3088
G1 F1000.0 Z0.0
G2 F2000.0 X7.5229 Y3.2979 Z-0.0333 I-0.0125 J0.0
G2 Y3.3196 Z-0.0667 I0.0062 J0.0108
G2 X7.5417 Y3.3088 Z-0.1 I0.0063 J-0.0108
G2 X7.5229 Y3.2979 Z-0.1333 I-0.0125 J0.0
G2 Y3.3196 Z-0.1667 I0.0062 J0.0108
G2 X7.5417 Y3.3088 Z-0.2 I0.0063 J-0.0108
G2 X7.5229 Y3.2979 Z-0.2333 I-0.0125 J0.0
G2 Y3.3196 Z-0.2667 I0.0062 J0.0108
G2 X7.5417 Y3.3088 Z-0.3 I0.0063 J-0.0108
G2 X7.5229 Y3.2979 Z-0.3333 I-0.0125 J0.0
G2 Y3.3196 Z-0.3667 I0.0063 J0.0108
G2 X7.5417 Y3.3088 Z-0.4 I0.0062 J-0.0108
G2 X7.5229 Y3.2979 Z-0.4333 I-0.0125 J0.0
G2 Y3.3196 Z-0.4667 I0.0063 J0.0108
G2 X7.5417 Y3.3088 Z-0.5 I0.0062 J-0.0108
G2 X7.5229 Y3.2979 Z-0.5333 I-0.0125 J0.0
G2 Y3.3196 Z-0.5667 I0.0063 J0.0108
G2 X7.5417 Y3.3088 Z-0.6 I0.0062 J-0.0108
G2 X7.5229 Y3.2979 Z-0.6333 I-0.0125 J0.0
G2 Y3.3196 Z-0.6667 I0.0062 J0.0108
G2 X7.5417 Y3.3088 Z-0.7 I0.0063 J-0.0108
G2 X7.5229 Y3.2979 Z-0.7333 I-0.0125 J0.0
G2 Y3.3196 Z-0.7667 I0.0062 J0.0108
G2 X7.5417 Y3.3088 Z-0.8 I0.0063 J-0.0108
G2 X7.5229 Y3.2979 Z-0.8333 I-0.0125 J0.0
G2 Y3.3196 Z-0.8667 I0.0062 J0.0108
G2 X7.5417 Y3.3088 Z-0.9 I0.0063 J-0.0108
G2 X7.5229 Y3.2979 Z-0.9333 I-0.0125 J0.0
G2 Y3.3196 Z-0.9667 I0.0062 J0.0108
G2 X7.5417 Y3.3088 Z-1.0 I0.0063 J-0.0108
G2 X7.5229 Y3.2979 Z-1.0333 I-0.0125 J0.0
G2 Y3.3196 Z-1.0667 I0.0062 J0.0108
G2 X7.5417 Y3.3088 Z-1.1 I0.0063 J-0.0108
G2 X7.5229 Y3.2979 Z-1.1333 I-0.0125 J0.0
G2 Y3.3196 Z-1.1667 I0.0062 J0.0108
G2 X7.5417 Y3.3088 Z-1.2 I0.0063 J-0.0108
G2 X7.5229 Y3.2979 Z-1.2333 I-0.0125 J0.0
G2 Y3.3196 Z-1.2667 I0.0062 J0.0108
G2 X7.5417 Y3.3088 Z-1.3 I0.0063 J-0.0108
G2 X7.5229 Y3.2979 Z-1.3333 I-0.0125 J0.0
G2 Y3.3196 Z-1.3667 I0.0062 J0.0108
G2 X7.5417 Y3.3088 Z-1.4 I0.0063 J-0.0108
G2 X7.5229 Y3.2979 Z-1.4333 I-0.0125 J0.0
G2 Y3.3196 Z-1.4667 I0.0062 J0.0108
G2 X7.5417 Y3.3088 Z-1.5 I0.0063 J-0.0108
G2 X7.5229 Y3.2979 Z-1.5333 I-0.0125 J0.0
G2 Y3.3196 Z-1.5667 I0.0062 J0.0108
G2 X7.5417 Y3.3088 Z-1.6 I0.0063 J-0.0108
G2 X7.5229 Y3.2979 Z-1.6333 I-0.0125 J0.0
G2 Y3.3196 Z-1.6667 I0.0062 J0.0108
G2 X7.5417 Y3.3088 Z-1.7 I0.0063 J-0.0108
G2 X7.5229 Y3.2979 Z-1.7333 I-0.0125 J0.0
G2 Y3.3196 Z-1.7667 I0.0062 J0.0108
G2 X7.5417 Y3.3088 Z-1.8 I0.0063 J-0.0108
G2 X7.5229 Y3.2979 Z-1.8333 I-0.0125 J0.0
G2 Y3.3196 Z-1.8667 I0.0062 J0.0108
G2 X7.5417 Y3.3088 Z-1.9 I0.0063 J-0.0108
G2 X7.5229 Y3.2979 Z-1.9333 I-0.0125 J0.0
G2 Y3.3196 Z-1.9667 I0.0062 J0.0108
G2 X7.5417 Y3.3088 Z-2.0 I0.0063 J-0.0108
G2 X7.5229 Y3.2979 Z-2.0333 I-0.0125 J0.0
G2 Y3.3196 Z-2.0667 I0.0062 J0.0108
G2 X7.5417 Y3.3088 Z-2.1 I0.0063 J-0.0108
G2 X7.5229 Y3.2979 Z-2.1333 I-0.0125 J0.0
G2 Y3.3196 Z-2.1667 I0.0062 J0.0108
G2 X7.5417 Y3.3088 Z-2.2 I0.0063 J-0.0108
G2 X7.5229 Y3.2979 Z-2.2333 I-0.0125 J0.0
G2 Y3.3196 Z-2.2667 I0.0062 J0.0108
G2 X7.5417 Y3.3088 Z-2.3 I0.0063 J-0.0108
G2 X7.5229 Y3.2979 Z-2.3333 I-0.0125 J0.0
G2 Y3.3196 Z-2.3667 I0.0063 J0.0108
G2 X7.5417 Y3.3088 Z-2.4 I0.0062 J-0.0108
G2 X7.5229 Y3.2979 Z-2.4333 I-0.0125 J0.0
G2 Y3.3196 Z-2.4667 I0.0063 J0.0108
G2 X7.5417 Y3.3088 Z-2.5 I0.0062 J-0.0108
G2 X7.5229 Y3.2979 Z-2.5333 I-0.0125 J0.0
G2 Y3.3196 Z-2.5667 I0.0063 J0.0108
G2 X7.5417 Y3.3088 Z-2.6 I0.0062 J-0.0108
G2 X7.5229 Y3.2979 Z-2.6333 I-0.0125 J0.0
G2 Y3.3196 Z-2.6667 I0.0063 J0.0108
G2 X7.5417 Y3.3088 Z-2.7 I0.0062 J-0.0108
G2 X7.5229 Y3.2979 Z-2.7333 I-0.0125 J0.0
G2 Y3.3196 Z-2.7667 I0.0063 J0.0108
G2 X7.5417 Y3.3088 Z-2.8 I0.0062 J-0.0108
G2 X7.5229 Y3.2979 Z-2.8333 I-0.0125 J0.0
G2 Y3.3196 Z-2.8667 I0.0063 J0.0108
G2 X7.5417 Y3.3088 Z-2.9 I0.0062 J-0.0108
G2 X7.5229 Y3.2979 Z-2.9333 I-0.0125 J0.0
G2 Y3.3196 Z-2.9667 I0.0063 J0.0108
G2 X7.5417 Y3.3088 Z-3.0 I0.0062 J-0.0108
G2 X7.5229 Y3.2979 Z-3.0333 I-0.0125 J0.0
G2 Y3.3196 Z-3.0667 I0.0063 J0.0108
G2 X7.5417 Y3.3088 Z-3.1 I0.0062 J-0.0108
G2 X7.5229 Y3.2979 Z-3.1333 I-0.0125 J0.0
G2 Y3.3196 Z-3.1667 I0.0063 J0.0108
G2 X7.5417 Y3.3088 Z-3.2 I0.0062 J-0.0108
G2 X7.5229 Y3.2979 I-0.0125 J0.0
G2 Y3.3196 I0.0063 J0.0108
G2 X7.5417 Y3.3088 I0.0062 J-0.0108
G0 Z3.0
G0 X11.6954 Y27.0781
G1 F1000.0 Z0.0
G2 F2000.0 X11.6767 Y27.0673 Z-0.0333 I-0.0125 J0.0
G2 Y27.0889 Z-0.0667 I0.0062 J0.0108
G2 X11.6954 Y27.0781 Z-0.1 I0.0062 J-0.0108
G2 X11.6767 Y27.0673 Z-0.1333 I-0.0125 J0.0
G2 Y27.0889 Z-0.1667 I0.0062 J0.0108
G2 X11.6954 Y27.0781 Z-0.2 I0.0062 J-0.0108
G2 X11.6767 Y27.0673 Z-0.2333 I-0.0125 J0.0
G2 Y27.0889 Z-0.2667 I0.0062 J0.0108
G2 X11.6954 Y27.0781 Z-0.3 I0.0062 J-0.0108
G2 X11.6767 Y27.0673 Z-0.3333 I-0.0125 J0.0
G2 Y27.0889 Z-0.3667 I0.0062 J0.0108
G2 X11.6954 Y27.0781 Z-0.4 I0.0062 J-0.0108
G2 X11.6767 Y27.0673 Z-0.4333 I-0.0125 J0.0
G2 Y27.0889 Z-0.4667 I0.0062 J0.0108
G2 X11.6954 Y27.0781 Z-0.5 I0.0062 J-0.0108
G2 X11.6767 Y27.0673 Z-0.5333 I-0.0125 J0.0
G2 Y27.0889 Z-0.5667 I0.0062 J0.0108
G2 X11.6954 Y27.0781 Z-0.6 I0.0062 J-0.0108
G2 X11.6767 Y27.0673 Z-0.6333 I-0.0125 J0.0
G2 Y27.0889 Z-0.6667 I0.0062 J0.0108
G2 X11.6954 Y27.0781 Z-0.7 I0.0062 J-0.0108
G2 X11.6767 Y27.0673 Z-0.7333 I-0.0125 J0.0
G2 Y27.0889 Z-0.7667 I0.0062 J0.0108
G2 X11.6954 Y27.0781 Z-0.8 I0.0062 J-0.0108
G2 X11.6767 Y27.0673 Z-0.8333 I-0.0125 J0.0
G2 Y27.0889 Z-0.8667 I0.0062 J0.0108
G2 X11.6954 Y27.0781 Z-0.9 I0.0062 J-0.0108
G2 X11.6767 Y27.0673 Z-0.9333 I-0.0125 J0.0
G2 Y27.0889 Z-0.9667 I0.0062 J0.0108
G2 X11.6954 Y27.0781 Z-1.0 I0.0062 J-0.0108
G2 X11.6767 Y27.0673 Z-1.0333 I-0.0125 J0.0
G2 Y27.0889 Z-1.0667 I0.0062 J0.0108
G2 X11.6954 Y27.0781 Z-1.1 I0.0062 J-0.0108
G2 X11.6767 Y27.0673 Z-1.1333 I-0.0125 J0.0
G2 Y27.0889 Z-1.1667 I0.0062 J0.0108
G2 X11.6954 Y27.0781 Z-1.2 I0.0063 J-0.0108
G2 X11.6767 Y27.0673 Z-1.2333 I-0.0125 J0.0
G2 Y27.0889 Z-1.2667 I0.0062 J0.0108
G2 X11.6954 Y27.0781 Z-1.3 I0.0063 J-0.0108
G2 X11.6767 Y27.0673 Z-1.3333 I-0.0125 J0.0
G2 Y27.0889 Z-1.3667 I0.0062 J0.0108
G2 X11.6954 Y27.0781 Z-1.4 I0.0063 J-0.0108
G2 X11.6767 Y27.0673 Z-1.4333 I-0.0125 J0.0
G2 Y27.0889 Z-1.4667 I0.0062 J0.0108
G2 X11.6954 Y27.0781 Z-1.5 I0.0063 J-0.0108
G2 X11.6767 Y27.0673 Z-1.5333 I-0.0125 J0.0
G2 Y27.0889 Z-1.5667 I0.0062 J0.0108
G2 X11.6954 Y27.0781 Z-1.6 I0.0063 J-0.0108
G2 X11.6767 Y27.0673 Z-1.6333 I-0.0125 J0.0
G2 Y27.0889 Z-1.6667 I0.0062 J0.0108
G2 X11.6954 Y27.0781 Z-1.7 I0.0063 J-0.0108
G2 X11.6767 Y27.0673 Z-1.7333 I-0.0125 J0.0
G2 Y27.0889 Z-1.7667 I0.0062 J0.0108
G2 X11.6954 Y27.0781 Z-1.8 I0.0063 J-0.0108
G2 X11.6767 Y27.0673 Z-1.8333 I-0.0125 J0.0
G2 Y27.0889 Z-1.8667 I0.0062 J0.0108
G2 X11.6954 Y27.0781 Z-1.9 I0.0063 J-0.0108
G2 X11.6767 Y27.0673 Z-1.9333 I-0.0125 J0.0
G2 Y27.0889 Z-1.9667 I0.0062 J0.0108
G2 X11.6954 Y27.0781 Z-2.0 I0.0063 J-0.0108
G2 X11.6767 Y27.0673 Z-2.0333 I-0.0125 J0.0
G2 Y27.0889 Z-2.0667 I0.0062 J0.0108
G2 X11.6954 Y27.0781 Z-2.1 I0.0063 J-0.0108
G2 X11.6767 Y27.0673 Z-2.1333 I-0.0125 J0.0
G2 Y27.0889 Z-2.1667 I0.0062 J0.0108
G2 X11.6954 Y27.0781 Z-2.2 I0.0063 J-0.0108
G2 X11.6767 Y27.0673 Z-2.2333 I-0.0125 J0.0
G2 Y27.0889 Z-2.2667 I0.0062 J0.0108
G2 X11.6954 Y27.0781 Z-2.3 I0.0062 J-0.0108
G2 X11.6767 Y27.0673 Z-2.3333 I-0.0125 J0.0
G2 Y27.0889 Z-2.3667 I0.0062 J0.0108
G2 X11.6954 Y27.0781 Z-2.4 I0.0062 J-0.0108
G2 X11.6767 Y27.0673 Z-2.4333 I-0.0125 J0.0
G2 Y27.0889 Z-2.4667 I0.0062 J0.0108
G2 X11.6954 Y27.0781 Z-2.5 I0.0062 J-0.0108
G2 X11.6767 Y27.0673 Z-2.5333 I-0.0125 J0.0
G2 Y27.0889 Z-2.5667 I0.0062 J0.0108
G2 X11.6954 Y27.0781 Z-2.6 I0.0062 J-0.0108
G2 X11.6767 Y27.0673 Z-2.6333 I-0.0125 J0.0
G2 Y27.0889 Z-2.6667 I0.0063 J0.0108
G2 X11.6954 Y27.0781 Z-2.7 I0.0062 J-0.0108
G2 X11.6767 Y27.0673 Z-2.7333 I-0.0125 J0.0
G2 Y27.0889 Z-2.7667 I0.0063 J0.0108
G2 X11.6954 Y27.0781 Z-2.8 I0.0062 J-0.0108
G2 X11.6767 Y27.0673 Z-2.8333 I-0.0125 J0.0
G2 Y27.0889 Z-2.8667 I0.0063 J0.0108
G2 X11.6954 Y27.0781 Z-2.9 I0.0062 J-0.0108
G2 X11.6767 Y27.0673 Z-2.9333 I-0.0125 J0.0
G2 Y27.0889 Z-2.9667 I0.0063 J0.0108
G2 X11.6954 Y27.0781 Z-3.0 I0.0062 J-0.0108
G2 X11.6767 Y27.0673 Z-3.0333 I-0.0125 J0.0
G2 Y27.0889 Z-3.0667 I0.0063 J0.0108
G2 X11.6954 Y27.0781 Z-3.1 I0.0062 J-0.0108
G2 X11.6767 Y27.0673 Z-3.1333 I-0.0125 J0.0
G2 Y27.0889 Z-3.1667 I0.0063 J0.0108
G2 X11.6954 Y27.0781 Z-3.2 I0.0062 J-0.0108
G2 X11.6767 Y27.0673 I-0.0125 J0.0
G2 Y27.0889 I0.0063 J0.0108
G2 X11.6954 Y27.0781 I0.0062 J-0.0108
G0 Z3.0
G0 X18.616 Y43.829
G1 F1000.0 Z0.0
G2 F2000.0 X18.5973 Y43.8182 Z-0.0333 I-0.0125 J0.0
G2 Y43.8398 Z-0.0667 I0.0063 J0.0108
G2 X18.616 Y43.829 Z-0.1 I0.0062 J-0.0108
G2 X18.5973 Y43.8182 Z-0.1333 I-0.0125 J0.0
G2 Y43.8398 Z-0.1667 I0.0063 J0.0108
G2 X18.616 Y43.829 Z-0.2 I0.0062 J-0.0108
G2 X18.5973 Y43.8182 Z-0.2333 I-0.0125 J0.0
G2 Y43.8398 Z-0.2667 I0.0063 J0.0108
G2 X18.616 Y43.829 Z-0.3 I0.0062 J-0.0108
G2 X18.5973 Y43.8182 Z-0.3333 I-0.0125 J0.0
G2 Y43.8398 Z-0.3667 I0.0063 J0.0108
G2 X18.616 Y43.829 Z-0.4 I0.0062 J-0.0108
G2 X18.5973 Y43.8182 Z-0.4333 I-0.0125 J0.0
G2 Y43.8398 Z-0.4667 I0.0063 J0.0108
G2 X18.616 Y43.829 Z-0.5 I0.0062 J-0.0108
G2 X18.5973 Y43.8182 Z-0.5333 I-0.0125 J0.0
G2 Y43.8398 Z-0.5667 I0.0063 J0.0108
G2 X18.616 Y43.829 Z-0.6 I0.0062 J-0.0108
G2 X18.5973 Y43.8182 Z-0.6333 I-0.0125 J0.0
G2 Y43.8398 Z-0.6667 I0.0063 J0.0108
G2 X18.616 Y43.829 Z-0.7 I0.0062 J-0.0108
G2 X18.5973 Y43.8182 Z-0.7333 I-0.0125 J0.0
G2 Y43.8398 Z-0.7667 I0.0063 J0.0108
G2 X18.616 Y43.829 Z-0.8 I0.0062 J-0.0108
G2 X18.5973 Y43.8182 Z-0.8333 I-0.0125 J0.0
G2 Y43.8398 Z-0.8667 I0.0063 J0.0108
G2 X18.616 Y43.829 Z-0.9 I0.0062 J-0.0108
G2 X18.5973 Y43.8182 Z-0.9333 I-0.0125 J0.0
G2 Y43.8398 Z-0.9667 I0.0063 J0.0108
G2 X18.616 Y43.829 Z-1.0 I0.0062 J-0.0108
G2 X18.5973 Y43.8182 Z-1.0333 I-0.0125 J0.0
G2 Y43.8398 Z-1.0667 I0.0063 J0.0108
G2 X18.616 Y43.829 Z-1.1 I0.0062 J-0.0108
G2 X18.5973 Y43.8182 Z-1.1333 I-0.0125 J0.0
G2 Y43.8398 Z-1.1667 I0.0063 J0.0108
G2 X18.616 Y43.829 Z-1.2 I0.0062 J-0.0108
G2 X18.5973 Y43.8182 Z-1.2333 I-0.0125 J0.0
G2 Y43.8398 Z-1.2667 I0.0063 J0.0108
G2 X18.616 Y43.829 Z-1.3 I0.0062 J-0.0108
G2 X18.5973 Y43.8182 Z-1.3333 I-0.0125 J0.0
G2 Y43.8398 Z-1.3667 I0.0063 J0.0108
G2 X18.616 Y43.829 Z-1.4 I0.0062 J-0.0108
G2 X18.5973 Y43.8182 Z-1.4333 I-0.0125 J0.0
G2 Y43.8398 Z-1.4667 I0.0063 J0.0108
G2 X18.616 Y43.829 Z-1.5 I0.0062 J-0.0108
G2 X18.5973 Y43.8182 Z-1.5333 I-0.0125 J0.0
G2 Y43.8398 Z-1.5667 I0.0063 J0.0108
G2 X18.616 Y43.829 Z-1.6 I0.0062 J-0.0108
G2 X18.5973 Y43.8182 Z-1.6333 I-0.0125 J0.0
G2 Y43.8398 Z-1.6667 I0.0063 J0.0108
G2 X18.616 Y43.829 Z-1.7 I0.0062 J-0.0108
G2 X18.5973 Y43.8182 Z-1.7333 I-0.0125 J0.0
G2 Y43.8398 Z-1.7667 I0.0063 J0.0108
G2 X18.616 Y43.829 Z-1.8 I0.0062 J-0.0108
G2 X18.5973 Y43.8182 Z-1.8333 I-0.0125 J0.0
G2 Y43.8398 Z-1.8667 I0.0063 J0.0108
G2 X18.616 Y43.829 Z-1.9 I0.0062 J-0.0108
G2 X18.5973 Y43.8182 Z-1.9333 I-0.0125 J0.0
G2 Y43.8398 Z-1.9667 I0.0063 J0.0108
G2 X18.616 Y43.829 Z-2.0 I0.0062 J-0.0108
G2 X18.5973 Y43.8182 Z-2.0333 I-0.0125 J0.0
G2 Y43.8398 Z-2.0667 I0.0063 J0.0108
G2 X18.616 Y43.829 Z-2.1 I0.0062 J-0.0108
G2 X18.5973 Y43.8182 Z-2.1333 I-0.0125 J0.0
G2 Y43.8398 Z-2.1667 I0.0063 J0.0108
G2 X18.616 Y43.829 Z-2.2 I0.0062 J-0.0108
G2 X18.5973 Y43.8182 Z-2.2333 I-0.0125 J0.0
G2 Y43.8398 Z-2.2667 I0.0063 J0.0108
G2 X18.616 Y43.829 Z-2.3 I0.0062 J-0.0108
G2 X18.5973 Y43.8182 Z-2.3333 I-0.0125 J0.0
G2 Y43.8398 Z-2.3667 I0.0063 J0.0108
G2 X18.616 Y43.829 Z-2.4 I0.0062 J-0.0108
G2 X18.5973 Y43.8182 Z-2.4333 I-0.0125 J0.0
G2 Y43.8398 Z-2.4667 I0.0063 J0.0108
G2 X18.616 Y43.829 Z-2.5 I0.0062 J-0.0108
G2 X18.5973 Y43.8182 Z-2.5333 I-0.0125 J0.0
G2 Y43.8398 Z-2.5667 I0.0063 J0.0108
G2 X18.616 Y43.829 Z-2.6 I0.0062 J-0.0108
G2 X18.5973 Y43.8182 Z-2.6333 I-0.0125 J0.0
G2 Y43.8398 Z-2.6667 I0.0063 J0.0108
G2 X18.616 Y43.829 Z-2.7 I0.0062 J-0.0108
G2 X18.5973 Y43.8182 Z-2.7333 I-0.0125 J0.0
G2 Y43.8398 Z-2.7667 I0.0063 J0.0108
G2 X18.616 Y43.829 Z-2.8 I0.0062 J-0.0108
G2 X18.5973 Y43.8182 Z-2.8333 I-0.0125 J0.0
G2 Y43.8398 Z-2.8667 I0.0063 J0.0108
G2 X18.616 Y43.829 Z-2.9 I0.0062 J-0.0108
G2 X18.5973 Y43.8182 Z-2.9333 I-0.0125 J0.0
G2 Y43.8398 Z-2.9667 I0.0063 J0.0108
G2 X18.616 Y43.829 Z-3.0 I0.0062 J-0.0108
G2 X18.5973 Y43.8182 Z-3.0333 I-0.0125 J0.0
G2 Y43.8398 Z-3.0667 I0.0063 J0.0108
G2 X18.616 Y43.829 Z-3.1 I0.0062 J-0.0108
G2 X18.5973 Y43.8182 Z-3.1333 I-0.0125 J0.0
G2 Y43.8398 Z-3.1667 I0.0063 J0.0108
G2 X18.616 Y43.829 Z-3.2 I0.0062 J-0.0108
G2 X18.5973 Y43.8182 I-0.0125 J0.0
G2 Y43.8398 I0.0063 J0.0108
G2 X18.616 Y43.829 I0.0062 J-0.0108
G0 Z3.0
G0 X12.0478 Y64.5944
G1 F1000.0 Z0.0
G2 F2000.0 X12.0291 Y64.5836 Z-0.0333 I-0.0125 J0.0
G2 Y64.6052 Z-0.0667 I0.0062 J0.0108
G2 X12.0478 Y64.5944 Z-0.1 I0.0063 J-0.0108
G2 X12.0291 Y64.5836 Z-0.1333 I-0.0125 J0.0
G2 Y64.6052 Z-0.1667 I0.0062 J0.0108
G2 X12.0478 Y64.5944 Z-0.2 I0.0063 J-0.0108
G2 X12.0291 Y64.5836 Z-0.2333 I-0.0125 J0.0
G2 Y64.6052 Z-0.2667 I0.0062 J0.0108
G2 X12.0478 Y64.5944 Z-0.3 I0.0063 J-0.0108
G2 X12.0291 Y64.5836 Z-0.3333 I-0.0125 J0.0
G2 Y64.6052 Z-0.3667 I0.0062 J0.0108
G2 X12.0478 Y64.5944 Z-0.4 I0.0063 J-0.0108
G2 X12.0291 Y64.5836 Z-0.4333 I-0.0125 J0.0
G2 Y64.6052 Z-0.4667 I0.0062 J0.0108
G2 X12.0478 Y64.5944 Z-0.5 I0.0063 J-0.0108
G2 X12.0291 Y64.5836 Z-0.5333 I-0.0125 J0.0
G2 Y64.6052 Z-0.5667 I0.0062 J0.0108
G2 X12.0478 Y64.5944 Z-0.6 I0.0063 J-0.0108
G2 X12.0291 Y64.5836 Z-0.6333 I-0.0125 J0.0
G2 Y64.6052 Z-0.6667 I0.0062 J0.0108
G2 X12.0478 Y64.5944 Z-0.7 I0.0063 J-0.0108
G2 X12.0291 Y64.5836 Z-0.7333 I-0.0125 J0.0
G2 Y64.6052 Z-0.7667 I0.0062 J0.0108
G2 X12.0478 Y64.5944 Z-0.8 I0.0063 J-0.0108
G2 X12.0291 Y64.5836 Z-0.8333 I-0.0125 J0.0
G2 Y64.6052 Z-0.8667 I0.0062 J0.0108
G2 X12.0478 Y64.5944 Z-0.9 I0.0063 J-0.0108
G2 X12.0291 Y64.5836 Z-0.9333 I-0.0125 J0.0
G2 Y64.6052 Z-0.9667 I0.0062 J0.0108
G2 X12.0478 Y64.5944 Z-1.0 I0.0063 J-0.0108
G2 X12.0291 Y64.5836 Z-1.0333 I-0.0125 J0.0
G2 Y64.6052 Z-1.0667 I0.0062 J0.0108
G2 X12.0478 Y64.5944 Z-1.1 I0.0063 J-0.0108
G2 X12.0291 Y64.5836 Z-1.1333 I-0.0125 J0.0
G2 Y64.6052 Z-1.1667 I0.0062 J0.0108
G2 X12.0478 Y64.5944 Z-1.2 I0.0063 J-0.0108
G2 X12.0291 Y64.5836 Z-1.2333 I-0.0125 J0.0
G2 Y64.6052 Z-1.2667 I0.0062 J0.0108
G2 X12.0478 Y64.5944 Z-1.3 I0.0063 J-0.0108
G2 X12.0291 Y64.5836 Z-1.3333 I-0.0125 J0.0
G2 Y64.6052 Z-1.3667 I0.0062 J0.0108
G2 X12.0478 Y64.5944 Z-1.4 I0.0063 J-0.0108
G2 X12.0291 Y64.5836 Z-1.4333 I-0.0125 J0.0
G2 Y64.6052 Z-1.4667 I0.0062 J0.0108
G2 X12.0478 Y64.5944 Z-1.5 I0.0063 J-0.0108
G2 X12.0291 Y64.5836 Z-1.5333 I-0.0125 J0.0
G2 Y64.6052 Z-1.5667 I0.0062 J0.0108
G2 X12.0478 Y64.5944 Z-1.6 I0.0063 J-0.0108
G2 X12.0291 Y64.5836 Z-1.6333 I-0.0125 J0.0
G2 Y64.6052 Z-1.6667 I0.0062 J0.0108
G2 X12.0478 Y64.5944 Z-1.7 I0.0063 J-0.0108
G2 X12.0291 Y64.5836 Z-1.7333 I-0.0125 J0.0
G2 Y64.6052 Z-1.7667 I0.0062 J0.0108
G2 X12.0478 Y64.5944 Z-1.8 I0.0063 J-0.0108
G2 X12.0291 Y64.5836 Z-1.8333 I-0.0125 J0.0
G2 Y64.6052 Z-1.8667 I0.0062 J0.0108
G2 X12.0478 Y64.5944 Z-1.9 I0.0063 J-0.0108
G2 X12.0291 Y64.5836 Z-1.9333 I-0.0125 J0.0
G2 Y64.6052 Z-1.9667 I0.0062 J0.0108
G2 X12.0478 Y64.5944 Z-2.0 I0.0063 J-0.0108
G2 X12.0291 Y64.5836 Z-2.0333 I-0.0125 J0.0
G2 Y64.6052 Z-2.0667 I0.0062 J0.0108
G2 X12.0478 Y64.5944 Z-2.1 I0.0063 J-0.0108
G2 X12.0291 Y64.5836 Z-2.1333 I-0.0125 J0.0
G2 Y64.6052 Z-2.1667 I0.0062 J0.0108
G2 X12.0478 Y64.5944 Z-2.2 I0.0063 J-0.0108
G2 X12.0291 Y64.5836 Z-2.2333 I-0.0125 J0.0
G2 Y64.6052 Z-2.2667 I0.0062 J0.0108
G2 X12.0478 Y64.5944 Z-2.3 I0.0063 J-0.0108
G2 X12.0291 Y64.5836 Z-2.3333 I-0.0125 J0.0
G2 Y64.6052 Z-2.3667 I0.0062 J0.0108
G2 X12.0478 Y64.5944 Z-2.4 I0.0063 J-0.0108
G2 X12.0291 Y64.5836 Z-2.4333 I-0.0125 J0.0
G2 Y64.6052 Z-2.4667 I0.0062 J0.0108
G2 X12.0478 Y64.5944 Z-2.5 I0.0063 J-0.0108
G2 X12.0291 Y64.5836 Z-2.5333 I-0.0125 J0.0
G2 Y64.6052 Z-2.5667 I0.0062 J0.0108
G2 X12.0478 Y64.5944 Z-2.6 I0.0063 J-0.0108
G2 X12.0291 Y64.5836 Z-2.6333 I-0.0125 J0.0
G2 Y64.6052 Z-2.6667 I0.0062 J0.0108
G2 X12.0478 Y64.5944 Z-2.7 I0.0063 J-0.0108
G2 X12.0291 Y64.5836 Z-2.7333 I-0.0125 J0.0
G2 Y64.6052 Z-2.7667 I0.0062 J0.0108
G2 X12.0478 Y64.5944 Z-2.8 I0.0062 J-0.0108
G2 X12.0291 Y64.5836 Z-2.8333 I-0.0125 J0.0
G2 Y64.6052 Z-2.8667 I0.0062 J0.0108
G2 X12.0478 Y64.5944 Z-2.9 I0.0062 J-0.0108
G2 X12.0291 Y64.5836 Z-2.9333 I-0.0125 J0.0
G2 Y64.6052 Z-2.9667 I0.0062 J0.0108
G2 X12.0478 Y64.5944 Z-3.0 I0.0062 J-0.0108
G2 X12.0291 Y64.5836 Z-3.0333 I-0.0125 J0.0
G2 Y64.6052 Z-3.0667 I0.0062 J0.0108
G2 X12.0478 Y64.5944 Z-3.1 I0.0062 J-0.0108
G2 X12.0291 Y64.5836 Z-3.1333 I-0.0125 J0.0
G2 Y64.6052 Z-3.1667 I0.0063 J0.0108
G2 X12.0478 Y64.5944 Z-3.2 I0.0062 J-0.0108
G2 X12.0291 Y64.5836 I-0.0125 J0.0
G2 Y64.6052 I0.0063 J0.0108
G2 X12.0478 Y64.5944 I0.0062 J-0.0108
G0 Z3.0
G0 X18.5429 Y85.725
G1 F1000.0 Z0.0
G2 F2000.0 X18.5241 Y85.7142 Z-0.0333 I-0.0125 J0.0
G2 Y85.7358 Z-0.0667 I0.0062 J0.0108
G2 X18.5429 Y85.725 Z-0.1 I0.0063 J-0.0108
G2 X18.5241 Y85.7142 Z-0.1333 I-0.0125 J0.0
G2 Y85.7358 Z-0.1667 I0.0062 J0.0108
G2 X18.5429 Y85.725 Z-0.2 I0.0063 J-0.0108
G2 X18.5241 Y85.7142 Z-0.2333 I-0.0125 J0.0
G2 Y85.7358 Z-0.2667 I0.0062 J0.0108
G2 X18.5429 Y85.725 Z-0.3 I0.0063 J-0.0108
G2 X18.5241 Y85.7142 Z-0.3333 I-0.0125 J0.0
G2 Y85.7358 Z-0.3667 I0.0062 J0.0108
G2 X18.5429 Y85.725 Z-0.4 I0.0063 J-0.0108
G2 X18.5241 Y85.7142 Z-0.4333 I-0.0125 J0.0
G2 Y85.7358 Z-0.4667 I0.0062 J0.0108
G2 X18.5429 Y85.725 Z-0.5 I0.0063 J-0.0108
G2 X18.5241 Y85.7142 Z-0.5333 I-0.0125 J0.0
G2 Y85.7358 Z-0.5667 I0.0062 J0.0108
G2 X18.5429 Y85.725 Z-0.6 I0.0063 J-0.0108
G2 X18.5241 Y85.7142 Z-0.6333 I-0.0125 J0.0
G2 Y85.7358 Z-0.6667 I0.0062 J0.0108
G2 X18.5429 Y85.725 Z-0.7 I0.0063 J-0.0108
G2 X18.5241 Y85.7142 Z-0.7333 I-0.0125 J0.0
G2 Y85.7358 Z-0.7667 I0.0062 J0.0108
G2 X18.5429 Y85.725 Z-0.8 I0.0063 J-0.0108
G2 X18.5241 Y85.7142 Z-0.8333 I-0.0125 J0.0
G2 Y85.7358 Z-0.8667 I0.0062 J0.0108
G2 X18.5429 Y85.725 Z-0.9 I0.0063 J-0.0108
G2 X18.5241 Y85.7142 Z-0.9333 I-0.0125 J0.0
G2 Y85.7358 Z-0.9667 I0.0062 J0.0108
G2 X18.5429 Y85.725 Z-1.0 I0.0063 J-0.0108
G2 X18.5241 Y85.7142 Z-1.0333 I-0.0125 J0.0
G2 Y85.7358 Z-1.0667 I0.0062 J0.0108
G2 X18.5429 Y85.725 Z-1.1 I0.0063 J-0.0108
G2 X18.5241 Y85.7142 Z-1.1333 I-0.0125 J0.0
G2 Y85.7358 Z-1.1667 I0.0062 J0.0108
G2 X18.5429 Y85.725 Z-1.2 I0.0063 J-0.0108
G2 X18.5241 Y85.7142 Z-1.2333 I-0.0125 J0.0
G2 Y85.7358 Z-1.2667 I0.0062 J0.0108
G2 X18.5429 Y85.725 Z-1.3 I0.0063 J-0.0108
G2 X18.5241 Y85.7142 Z-1.3333 I-0.0125 J0.0
G2 Y85.7358 Z-1.3667 I0.0062 J0.0108
G2 X18.5429 Y85.725 Z-1.4 I0.0063 J-0.0108
G2 X18.5241 Y85.7142 Z-1.4333 I-0.0125 J0.0
G2 Y85.7358 Z-1.4667 I0.0062 J0.0108
G2 X18.5429 Y85.725 Z-1.5 I0.0063 J-0.0108
G2 X18.5241 Y85.7142 Z-1.5333 I-0.0125 J0.0
G2 Y85.7358 Z-1.5667 I0.0062 J0.0108
G2 X18.5429 Y85.725 Z-1.6 I0.0063 J-0.0108
G2 X18.5241 Y85.7142 Z-1.6333 I-0.0125 J0.0
G2 Y85.7358 Z-1.6667 I0.0062 J0.0108
G2 X18.5429 Y85.725 Z-1.7 I0.0063 J-0.0108
G2 X18.5241 Y85.7142 Z-1.7333 I-0.0125 J0.0
G2 Y85.7358 Z-1.7667 I0.0062 J0.0108
G2 X18.5429 Y85.725 Z-1.8 I0.0063 J-0.0108
G2 X18.5241 Y85.7142 Z-1.8333 I-0.0125 J0.0
G2 Y85.7358 Z-1.8667 I0.0062 J0.0108
G2 X18.5429 Y85.725 Z-1.9 I0.0063 J-0.0108
G2 X18.5241 Y85.7142 Z-1.9333 I-0.0125 J0.0
G2 Y85.7358 Z-1.9667 I0.0062 J0.0108
G2 X18.5429 Y85.725 Z-2.0 I0.0063 J-0.0108
G2 X18.5241 Y85.7142 Z-2.0333 I-0.0125 J0.0
G2 Y85.7358 Z-2.0667 I0.0062 J0.0108
G2 X18.5429 Y85.725 Z-2.1 I0.0063 J-0.0108
G2 X18.5241 Y85.7142 Z-2.1333 I-0.0125 J0.0
G2 Y85.7358 Z-2.1667 I0.0062 J0.0108
G2 X18.5429 Y85.725 Z-2.2 I0.0063 J-0.0108
G2 X18.5241 Y85.7142 Z-2.2333 I-0.0125 J0.0
G2 Y85.7358 Z-2.2667 I0.0062 J0.0108
G2 X18.5429 Y85.725 Z-2.3 I0.0063 J-0.0108
G2 X18.5241 Y85.7142 Z-2.3333 I-0.0125 J0.0
G2 Y85.7358 Z-2.3667 I0.0062 J0.0108
G2 X18.5429 Y85.725 Z-2.4 I0.0063 J-0.0108
G2 X18.5241 Y85.7142 Z-2.4333 I-0.0125 J0.0
G2 Y85.7358 Z-2.4667 I0.0062 J0.0108
G2 X18.5429 Y85.725 Z-2.5 I0.0063 J-0.0108
G2 X18.5241 Y85.7142 Z-2.5333 I-0.0125 J0.0
G2 Y85.7358 Z-2.5667 I0.0062 J0.0108
G2 X18.5429 Y85.725 Z-2.6 I0.0063 J-0.0108
G2 X18.5241 Y85.7142 Z-2.6333 I-0.0125 J0.0
G2 Y85.7358 Z-2.6667 I0.0062 J0.0108
G2 X18.5429 Y85.725 Z-2.7 I0.0063 J-0.0108
G2 X18.5241 Y85.7142 Z-2.7333 I-0.0125 J0.0
G2 Y85.7358 Z-2.7667 I0.0062 J0.0108
G2 X18.5429 Y85.725 Z-2.8 I0.0063 J-0.0108
G2 X18.5241 Y85.7142 Z-2.8333 I-0.0125 J0.0
G2 Y85.7358 Z-2.8667 I0.0062 J0.0108
G2 X18.5429 Y85.725 Z-2.9 I0.0063 J-0.0108
G2 X18.5241 Y85.7142 Z-2.9333 I-0.0125 J0.0
G2 Y85.7358 Z-2.9667 I0.0062 J0.0108
G2 X18.5429 Y85.725 Z-3.0 I0.0063 J-0.0108
G2 X18.5241 Y85.7142 Z-3.0333 I-0.0125 J0.0
G2 Y85.7358 Z-3.0667 I0.0062 J0.0108
G2 X18.5429 Y85.725 Z-3.1 I0.0063 J-0.0108
G2 X18.5241 Y85.7142 Z-3.1333 I-0.0125 J0.0
G2 Y85.7358 Z-3.1667 I0.0062 J0.0108
G2 X18.5429 Y85.725 Z-3.2 I0.0063 J-0.0108
G2 X18.5241 Y85.7142 I-0.0125 J0.0
G2 Y85.7358 I0.0063 J0.0108
G2 X18.5429 Y85.725 I0.0062 J-0.0108
G0 Z3.0
G0 X11.7248 Y101.9969
G1 F1000.0 Z0.0
G2 F2000.0 X11.706 Y101.9861 Z-0.0333 I-0.0125 J0.0
G2 Y102.0077 Z-0.0667 I0.0062 J0.0108
G2 X11.7248 Y101.9969 Z-0.1 I0.0063 J-0.0108
G2 X11.706 Y101.9861 Z-0.1333 I-0.0125 J0.0
G2 Y102.0077 Z-0.1667 I0.0062 J0.0108
G2 X11.7248 Y101.9969 Z-0.2 I0.0063 J-0.0108
G2 X11.706 Y101.9861 Z-0.2333 I-0.0125 J0.0
G2 Y102.0077 Z-0.2667 I0.0062 J0.0108
G2 X11.7248 Y101.9969 Z-0.3 I0.0063 J-0.0108
G2 X11.706 Y101.9861 Z-0.3333 I-0.0125 J0.0
G2 Y102.0077 Z-0.3667 I0.0062 J0.0108
G2 X11.7248 Y101.9969 Z-0.4 I0.0063 J-0.0108
G2 X11.706 Y101.9861 Z-0.4333 I-0.0125 J0.0
G2 Y102.0077 Z-0.4667 I0.0062 J0.0108
G2 X11.7248 Y101.9969 Z-0.5 I0.0063 J-0.0108
G2 X11.706 Y101.9861 Z-0.5333 I-0.0125 J0.0
G2 Y102.0077 Z-0.5667 I0.0062 J0.0108
G2 X11.7248 Y101.9969 Z-0.6 I0.0063 J-0.0108
G2 X11.706 Y101.9861 Z-0.6333 I-0.0125 J0.0
G2 Y102.0077 Z-0.6667 I0.0062 J0.0108
G2 X11.7248 Y101.9969 Z-0.7 I0.0063 J-0.0108
G2 X11.706 Y101.9861 Z-0.7333 I-0.0125 J0.0
G2 Y102.0077 Z-0.7667 I0.0062 J0.0108
G2 X11.7248 Y101.9969 Z-0.8 I0.0063 J-0.0108
G2 X11.706 Y101.9861 Z-0.8333 I-0.0125 J0.0
G2 Y102.0077 Z-0.8667 I0.0062 J0.0108
G2 X11.7248 Y101.9969 Z-0.9 I0.0063 J-0.0108
G2 X11.706 Y101.9861 Z-0.9333 I-0.0125 J0.0
G2 Y102.0077 Z-0.9667 I0.0062 J0.0108
G2 X11.7248 Y101.9969 Z-1.0 I0.0063 J-0.0108
G2 X11.706 Y101.9861 Z-1.0333 I-0.0125 J0.0
G2 Y102.0077 Z-1.0667 I0.0062 J0.0108
G2 X11.7248 Y101.9969 Z-1.1 I0.0063 J-0.0108
G2 X11.706 Y101.9861 Z-1.1333 I-0.0125 J0.0
G2 Y102.0077 Z-1.1667 I0.0062 J0.0108
G2 X11.7248 Y101.9969 Z-1.2 I0.0063 J-0.0108
G2 X11.706 Y101.9861 Z-1.2333 I-0.0125 J0.0
G2 Y102.0077 Z-1.2667 I0.0062 J0.0108
G2 X11.7248 Y101.9969 Z-1.3 I0.0063 J-0.0108
G2 X11.706 Y101.9861 Z-1.3333 I-0.0125 J0.0
G2 Y102.0077 Z-1.3667 I0.0062 J0.0108
G2 X11.7248 Y101.9969 Z-1.4 I0.0063 J-0.0108
G2 X11.706 Y101.9861 Z-1.4333 I-0.0125 J0.0
G2 Y102.0077 Z-1.4667 I0.0062 J0.0108
G2 X11.7248 Y101.9969 Z-1.5 I0.0063 J-0.0108
G2 X11.706 Y101.9861 Z-1.5333 I-0.0125 J0.0
G2 Y102.0077 Z-1.5667 I0.0062 J0.0108
G2 X11.7248 Y101.9969 Z-1.6 I0.0063 J-0.0108
G2 X11.706 Y101.9861 Z-1.6333 I-0.0125 J0.0
G2 Y102.0077 Z-1.6667 I0.0062 J0.0108
G2 X11.7248 Y101.9969 Z-1.7 I0.0063 J-0.0108
G2 X11.706 Y101.9861 Z-1.7333 I-0.0125 J0.0
G2 Y102.0077 Z-1.7667 I0.0062 J0.0108
G2 X11.7248 Y101.9969 Z-1.8 I0.0063 J-0.0108
G2 X11.706 Y101.9861 Z-1.8333 I-0.0125 J0.0
G2 Y102.0077 Z-1.8667 I0.0062 J0.0108
G2 X11.7248 Y101.9969 Z-1.9 I0.0063 J-0.0108
G2 X11.706 Y101.9861 Z-1.9333 I-0.0125 J0.0
G2 Y102.0077 Z-1.9667 I0.0062 J0.0108
G2 X11.7248 Y101.9969 Z-2.0 I0.0063 J-0.0108
G2 X11.706 Y101.9861 Z-2.0333 I-0.0125 J0.0
G2 Y102.0077 Z-2.0667 I0.0062 J0.0108
G2 X11.7248 Y101.9969 Z-2.1 I0.0063 J-0.0108
G2 X11.706 Y101.9861 Z-2.1333 I-0.0125 J0.0
G2 Y102.0077 Z-2.1667 I0.0062 J0.0108
G2 X11.7248 Y101.9969 Z-2.2 I0.0063 J-0.0108
G2 X11.706 Y101.9861 Z-2.2333 I-0.0125 J0.0
G2 Y102.0077 Z-2.2667 I0.0062 J0.0108
G2 X11.7248 Y101.9969 Z-2.3 I0.0063 J-0.0108
G2 X11.706 Y101.9861 Z-2.3333 I-0.0125 J0.0
G2 Y102.0077 Z-2.3667 I0.0062 J0.0108
G2 X11.7248 Y101.9969 Z-2.4 I0.0063 J-0.0108
G2 X11.706 Y101.9861 Z-2.4333 I-0.0125 J0.0
G2 Y102.0077 Z-2.4667 I0.0062 J0.0108
G2 X11.7248 Y101.9969 Z-2.5 I0.0063 J-0.0108
G2 X11.706 Y101.9861 Z-2.5333 I-0.0125 J0.0
G2 Y102.0077 Z-2.5667 I0.0062 J0.0108
G2 X11.7248 Y101.9969 Z-2.6 I0.0063 J-0.0108
G2 X11.706 Y101.9861 Z-2.6333 I-0.0125 J0.0
G2 Y102.0077 Z-2.6667 I0.0062 J0.0108
G2 X11.7248 Y101.9969 Z-2.7 I0.0063 J-0.0108
G2 X11.706 Y101.9861 Z-2.7333 I-0.0125 J0.0
G2 Y102.0077 Z-2.7667 I0.0062 J0.0108
G2 X11.7248 Y101.9969 Z-2.8 I0.0063 J-0.0108
G2 X11.706 Y101.9861 Z-2.8333 I-0.0125 J0.0
G2 Y102.0077 Z-2.8667 I0.0062 J0.0108
G2 X11.7248 Y101.9969 Z-2.9 I0.0063 J-0.0108
G2 X11.706 Y101.9861 Z-2.9333 I-0.0125 J0.0
G2 Y102.0077 Z-2.9667 I0.0062 J0.0108
G2 X11.7248 Y101.9969 Z-3.0 I0.0063 J-0.0108
G2 X11.706 Y101.9861 Z-3.0333 I-0.0125 J0.0
G2 Y102.0077 Z-3.0667 I0.0062 J0.0108
G2 X11.7248 Y101.9969 Z-3.1 I0.0063 J-0.0108
G2 X11.706 Y101.9861 Z-3.1333 I-0.0125 J0.0
G2 Y102.0077 Z-3.1667 I0.0063 J0.0108
G2 X11.7248 Y101.9969 Z-3.2 I0.0062 J-0.0108
G2 X11.706 Y101.9861 I-0.0125 J0.0
G2 Y102.0077 I0.0063 J0.0108
G2 X11.7248 Y101.9969 I0.0062 J-0.0108
G0 Z3.0
G0 X24.9756 Y125.5305
G1 F1000.0 Z0.0
G2 F2000.0 X24.9568 Y125.5197 Z-0.0333 I-0.0125 J0.0
G2 Y125.5413 Z-0.0667 I0.0062 J0.0108
G2 X24.9756 Y125.5305 Z-0.1 I0.0063 J-0.0108
G2 X24.9568 Y125.5197 Z-0.1333 I-0.0125 J0.0
G2 Y125.5413 Z-0.1667 I0.0062 J0.0108
G2 X24.9756 Y125.5305 Z-0.2 I0.0063 J-0.0108
G2 X24.9568 Y125.5197 Z-0.2333 I-0.0125 J0.0
G2 Y125.5413 Z-0.2667 I0.0062 J0.0108
G2 X24.9756 Y125.5305 Z-0.3 I0.0063 J-0.0108
G2 X24.9568 Y125.5197 Z-0.3333 I-0.0125 J0.0
G2 Y125.5413 Z-0.3667 I0.0062 J0.0108
G2 X24.9756 Y125.5305 Z-0.4 I0.0063 J-0.0108
G2 X24.9568 Y125.5197 Z-0.4333 I-0.0125 J0.0
G2 Y125.5413 Z-0.4667 I0.0062 J0.0108
G2 X24.9756 Y125.5305 Z-0.5 I0.0063 J-0.0108
G2 X24.9568 Y125.5197 Z-0.5333 I-0.0125 J0.0
G2 Y125.5413 Z-0.5667 I0.0062 J0.0108
G2 X24.9756 Y125.5305 Z-0.6 I0.0063 J-0.0108
G2 X24.9568 Y125.5197 Z-0.6333 I-0.0125 J0.0
G2 Y125.5413 Z-0.6667 I0.0062 J0.0108
G2 X24.9756 Y125.5305 Z-0.7 I0.0063 J-0.0108
G2 X24.9568 Y125.5197 Z-0.7333 I-0.0125 J0.0
G2 Y125.5413 Z-0.7667 I0.0062 J0.0108
G2 X24.9756 Y125.5305 Z-0.8 I0.0063 J-0.0108
G2 X24.9568 Y125.5197 Z-0.8333 I-0.0125 J0.0
G2 Y125.5413 Z-0.8667 I0.0062 J0.0108
G2 X24.9756 Y125.5305 Z-0.9 I0.0063 J-0.0108
G2 X24.9568 Y125.5197 Z-0.9333 I-0.0125 J0.0
G2 Y125.5413 Z-0.9667 I0.0062 J0.0108
G2 X24.9756 Y125.5305 Z-1.0 I0.0063 J-0.0108
G2 X24.9568 Y125.5197 Z-1.0333 I-0.0125 J0.0
G2 Y125.5413 Z-1.0667 I0.0062 J0.0108
G2 X24.9756 Y125.5305 Z-1.1 I0.0063 J-0.0108
G2 X24.9568 Y125.5197 Z-1.1333 I-0.0125 J0.0
G2 Y125.5413 Z-1.1667 I0.0062 J0.0108
G2 X24.9756 Y125.5305 Z-1.2 I0.0063 J-0.0108
G2 X24.9568 Y125.5197 Z-1.2333 I-0.0125 J0.0
G2 Y125.5413 Z-1.2667 I0.0062 J0.0108
G2 X24.9756 Y125.5305 Z-1.3 I0.0063 J-0.0108
G2 X24.9568 Y125.5197 Z-1.3333 I-0.0125 J0.0
G2 Y125.5413 Z-1.3667 I0.0062 J0.0108
G2 X24.9756 Y125.5305 Z-1.4 I0.0063 J-0.0108
G2 X24.9568 Y125.5197 Z-1.4333 I-0.0125 J0.0
G2 Y125.5413 Z-1.4667 I0.0062 J0.0108
G2 X24.9756 Y125.5305 Z-1.5 I0.0063 J-0.0108
G2 X24.9568 Y125.5197 Z-1.5333 I-0.0125 J0.0
G2 Y125.5413 Z-1.5667 I0.0062 J0.0108
G2 X24.9756 Y125.5305 Z-1.6 I0.0063 J-0.0108
G2 X24.9568 Y125.5197 Z-1.6333 I-0.0125 J0.0
G2 Y125.5413 Z-1.6667 I0.0062 J0.0108
G2 X24.9756 Y125.5305 Z-1.7 I0.0063 J-0.0108
G2 X24.9568 Y125.5197 Z-1.7333 I-0.0125 J0.0
G2 Y125.5413 Z-1.7667 I0.0062 J0.0108
G2 X24.9756 Y125.5305 Z-1.8 I0.0063 J-0.0108
G2 X24.9568 Y125.5197 Z-1.8333 I-0.0125 J0.0
G2 Y125.5413 Z-1.8667 I0.0062 J0.0108
G2 X24.9756 Y125.5305 Z-1.9 I0.0063 J-0.0108
G2 X24.9568 Y125.5197 Z-1.9333 I-0.0125 J0.0
G2 Y125.5413 Z-1.9667 I0.0062 J0.0108
G2 X24.9756 Y125.5305 Z-2.0 I0.0063 J-0.0108
G2 X24.9568 Y125.5197 Z-2.0333 I-0.0125 J0.0
G2 Y125.5413 Z-2.0667 I0.0062 J0.0108
G2 X24.9756 Y125.5305 Z-2.1 I0.0063 J-0.0108
G2 X24.9568 Y125.5197 Z-2.1333 I-0.0125 J0.0
G2 Y125.5413 Z-2.1667 I0.0062 J0.0108
G2 X24.9756 Y125.5305 Z-2.2 I0.0063 J-0.0108
G2 X24.9568 Y125.5197 Z-2.2333 I-0.0125 J0.0
G2 Y125.5413 Z-2.2667 I0.0062 J0.0108
G2 X24.9756 Y125.5305 Z-2.3 I0.0063 J-0.0108
G2 X24.9568 Y125.5197 Z-2.3333 I-0.0125 J0.0
G2 Y125.5413 Z-2.3667 I0.0062 J0.0108
G2 X24.9756 Y125.5305 Z-2.4 I0.0063 J-0.0108
G2 X24.9568 Y125.5197 Z-2.4333 I-0.0125 J0.0
G2 Y125.5413 Z-2.4667 I0.0062 J0.0108
G2 X24.9756 Y125.5305 Z-2.5 I0.0063 J-0.0108
G2 X24.9568 Y125.5197 Z-2.5333 I-0.0125 J0.0
G2 Y125.5413 Z-2.5667 I0.0062 J0.0108
G2 X24.9756 Y125.5305 Z-2.6 I0.0063 J-0.0108
G2 X24.9568 Y125.5197 Z-2.6333 I-0.0125 J0.0
G2 Y125.5413 Z-2.6667 I0.0062 J0.0108
G2 X24.9756 Y125.5305 Z-2.7 I0.0063 J-0.0108
G2 X24.9568 Y125.5197 Z-2.7333 I-0.0125 J0.0
G2 Y125.5413 Z-2.7667 I0.0062 J0.0108
G2 X24.9756 Y125.5305 Z-2.8 I0.0063 J-0.0108
G2 X24.9568 Y125.5197 Z-2.8333 I-0.0125 J0.0
G2 Y125.5413 Z-2.8667 I0.0062 J0.0108
G2 X24.9756 Y125.5305 Z-2.9 I0.0063 J-0.0108
G2 X24.9568 Y125.5197 Z-2.9333 I-0.0125 J0.0
G2 Y125.5413 Z-2.9667 I0.0062 J0.0108
G2 X24.9756 Y125.5305 Z-3.0 I0.0063 J-0.0108
G2 X24.9568 Y125.5197 Z-3.0333 I-0.0125 J0.0
G2 Y125.5413 Z-3.0667 I0.0062 J0.0108
G2 X24.9756 Y125.5305 Z-3.1 I0.0063 J-0.0108
G2 X24.9568 Y125.5197 Z-3.1333 I-0.0125 J0.0
G2 Y125.5413 Z-3.1667 I0.0062 J0.0108
G2 X24.9756 Y125.5305 Z-3.2 I0.0063 J-0.0108
G2 X24.9568 Y125.5197 I-0.0125 J0.0
G2 Y125.5413 I0.0063 J0.0108
G2 X24.9756 Y125.5305 I0.0062 J-0.0108
( cutout )
S1000
G0 Z3.0
G0 X0.727 Y-1.3125
G1 F1000.0 Z-0.1
G1 F2000.0 X29.2776
G3 X30.8651 Y0.275 I0.0 J1.5875
G1 Y128.6944
G3 X29.2776 Y130.2819 I-1.5875 J0.0
G1 X0.727
G3 X-0.8605 Y128.6944 I0.0 J-1.5875
G1 Y0.275
G3 X0.727 Y-1.3125 I1.5875 J0.0
G1 F1000.0 Z-0.2
G1 F2000.0 X29.2776
G3 X30.8651 Y0.275 I0.0 J1.5875
G1 Y128.6944
G3 X29.2776 Y130.2819 I-1.5875 J0.0
G1 X0.727
G3 X-0.8605 Y128.6944 I0.0 J-1.5875
G1 Y0.275
G3 X0.727 Y-1.3125 I1.5875 J0.0
G1 F1000.0 Z-0.3
G1 F2000.0 X29.2776
G3 X30.8651 Y0.275 I0.0 J1.5875
G1 Y128.6944
G3 X29.2776 Y130.2819 I-1.5875 J0.0
G1 X0.727
G3 X-0.8605 Y128.6944 I0.0 J-1.5875
G1 Y0.275
G3 X0.727 Y-1.3125 I1.5875 J0.0
G1 F1000.0 Z-0.4
G1 F2000.0 X29.2776
G3 X30.8651 Y0.275 I0.0 J1.5875
G1 Y128.6944
G3 X29.2776 Y130.2819 I-1.5875 J0.0
G1 X0.727
G3 X-0.8605 Y128.6944 I0.0 J-1.5875
G1 Y0.275
G3 X0.727 Y-1.3125 I1.5875 J0.0
G1 F1000.0 Z-0.5
G1 F2000.0 X29.2776
G3 X30.8651 Y0.275 I0.0 J1.5875
G1 Y128.6944
G3 X29.2776 Y130.2819 I-1.5875 J0.0
G1 X0.727
G3 X-0.8605 Y128.6944 I0.0 J-1.5875
G1 Y0.275
G3 X0.727 Y-1.3125 I1.5875 J0.0
G1 F1000.0 Z-0.6
G1 F2000.0 X29.2776
G3 X30.8651 Y0.275 I0.0 J1.5875
G1 Y128.6944
G3 X29.2776 Y130.2819 I-1.5875 J0.0
G1 X0.727
G3 X-0.8605 Y128.6944 I0.0 J-1.5875
G1 Y0.275
G3 X0.727 Y-1.3125 I1.5875 J0.0
G1 F1000.0 Z-0.7
G1 F2000.0 X29.2776
G3 X30.8651 Y0.275 I0.0 J1.5875
G1 Y128.6944
G3 X29.2776 Y130.2819 I-1.5875 J0.0
G1 X0.727
G3 X-0.8605 Y128.6944 I0.0 J-1.5875
G1 Y0.275
G3 X0.727 Y-1.3125 I1.5875 J0.0
G1 F1000.0 Z-0.8
G1 F2000.0 X29.2776
G3 X30.8651 Y0.275 I0.0 J1.5875
G1 Y128.6944
G3 X29.2776 Y130.2819 I-1.5875 J0.0
G1 X0.727
G3 X-0.8605 Y128.6944 I0.0 J-1.5875
G1 Y0.275
G3 X0.727 Y-1.3125 I1.5875 J0.0
G1 F1000.0 Z-0.9
G1 F2000.0 X29.2776
G3 X30.8651 Y0.275 I0.0 J1.5875
G1 Y128.6944
G3 X29.2776 Y130.2819 I-1.5875 J0.0
G1 X0.727
G3 X-0.8605 Y128.6944 I0.0 J-1.5875
G1 Y0.275
G3 X0.727 Y-1.3125 I1.5875 J0.0
G1 F1000.0 Z-1.0
G1 F2000.0 X29.2776
G3 X30.8651 Y0.275 I0.0 J1.5875
G1 Y128.6944
G3 X29.2776 Y130.2819 I-1.5875 J0.0
G1 X0.727
G3 X-0.8605 Y128.6944 I0.0 J-1.5875
G1 Y0.275
G3 X0.727 Y-1.3125 I1.5875 J0.0
G1 F1000.0 Z-1.1
G1 F2000.0 X29.2776
G3 X30.8651 Y0.275 I0.0 J1.5875
G1 Y128.6944
G3 X29.2776 Y130.2819 I-1.5875 J0.0
G1 X0.727
G3 X-0.8605 Y128.6944 I0.0 J-1.5875
G1 Y0.275
G3 X0.727 Y-1.3125 I1.5875 J0.0
G1 F1000.0 Z-1.2
G1 F2000.0 X29.2776
G3 X30.8651 Y0.275 I0.0 J1.5875
G1 Y128.6944
G3 X29.2776 Y130.2819 I-1.5875 J0.0
G1 X0.727
G3 X-0.8605 Y128.6944 I0.0 J-1.5875
G1 Y0.275
G3 X0.727 Y-1.3125 I1.5875 J0.0
G1 F1000.0 Z-1.3
G1 F2000.0 X29.2776
G3 X30.8651 Y0.275 I0.0 J1.5875
G1 Y8.6295
G1 Y10.967 Z-1.2
G1 Y13.3045 Z-1.3
G1 Y87.1144
G1 Y89.4519 Z-1.2
G1 Y91.7894 Z-1.3
G1 Y128.6944
G3 X29.2776 Y130.2819 I-1.5875 J0.0
G1 X0.727
G3 X-0.8605 Y128.6944 I0.0 J-1.5875
G1 Y120.34
G1 Y118.0025 Z-1.2
G1 Y115.665 Z-1.3
G1 Y41.855
G1 Y39.5175 Z-1.2
G1 Y37.18 Z-1.3
G1 Y0.275
G3 X0.727 Y-1.3125 I1.5875 J0.0
G1 F1000.0 Z-1.4
G1 F2000.0 X29.2776
G3 X30.8651 Y0.275 I0.0 J1.5875
G1 Y8.6295
G1 Y10.967 Z-1.2
G1 Y13.3045 Z-1.4
G1 Y87.1144
G1 Y89.4519 Z-1.2
G1 Y91.7894 Z-1.4
G1 Y128.6944
G3 X29.2776 Y130.2819 I-1.5875 J0.0
G1 X0.727
G3 X-0.8605 Y128.6944 I0.0 J-1.5875
G1 Y120.34
G1 Y118.0025 Z-1.2
G1 Y115.665 Z-1.4
G1 Y41.855
G1 Y39.5175 Z-1.2
G1 Y37.18 Z-1.4
G1 Y0.275
G3 X0.727 Y-1.3125 I1.5875 J0.0
G1 F1000.0 Z-1.5
G1 F2000.0 X29.2776
G3 X30.8651 Y0.275 I0.0 J1.5875
G1 Y8.6295
G1 Y10.967 Z-1.2
G1 Y13.3045 Z-1.5
G1 Y87.1144
G1 Y89.4519 Z-1.2
G1 Y91.7894 Z-1.5
G1 Y128.6944
G3 X29.2776 Y130.2819 I-1.5875 J0.0
G1 X0.727
G3 X-0.8605 Y128.6944 I0.0 J-1.5875
G1 Y120.34
G1 Y118.0025 Z-1.2
G1 Y115.665 Z-1.5
G1 Y41.855
G1 Y39.5175 Z-1.2
G1 Y37.18 Z-1.5
G1 Y0.275
G3 X0.727 Y-1.3125 I1.5875 J0.0
G1 F1000.0 Z-1.6
G1 F2000.0 X29.2776
G3 X30.8651 Y0.275 I0.0 J1.5875
G1 Y8.6295
G1 Y10.967 Z-1.2
G1 Y13.3045 Z-1.6
G1 Y87.1144
G1 Y89.4519 Z-1.2
G1 Y91.7894 Z-1.6
G1 Y128.6944
G3 X29.2776 Y130.2819 I-1.5875 J0.0
G1 X0.727
G3 X-0.8605 Y128.6944 I0.0 J-1.5875
G1 Y120.34
G1 Y118.0025 Z-1.2
G1 Y115.665 Z-1.6
G1 Y41.855
G1 Y39.5175 Z-1.2
G1 Y37.18 Z-1.6
G1 Y0.275
G3 X0.727 Y-1.3125 I1.5875 J0.0
G1 F1000.0 Z-1.7
G1 F2000.0 X29.2776
G3 X30.8651 Y0.275 I0.0 J1.5875
G1 Y8.6295
G1 Y10.967 Z-1.2
G1 Y13.3045 Z-1.7
G1 Y87.1144
G1 Y89.4519 Z-1.2
G1 Y91.7894 Z-1.7
G1 Y128.6944
G3 X29.2776 Y130.2819 I-1.5875 J0.0
G1 X0.727
G3 X-0.8605 Y128.6944 I0.0 J-1.5875
G1 Y120.34
G1 Y118.0025 Z-1.2
G1 Y115.665 Z-1.7
G1 Y41.855
G1 Y39.5175 Z-1.2
G1 Y37.18 Z-1.7
G1 Y0.275
G3 X0.727 Y-1.3125 I1.5875 J0.0
G1 F1000.0 Z-1.8
G1 F2000.0 X29.2776
G3 X30.8651 Y0.275 I0.0 J1.5875
G1 Y8.6295
G1 Y10.967 Z-1.2
G1 Y13.3045 Z-1.8
G1 Y87.1144
G1 Y89.4519 Z-1.2
G1 Y91.7894 Z-1.8
G1 Y128.6944
G3 X29.2776 Y130.2819 I-1.5875 J0.0
G1 X0.727
G3 X-0.8605 Y128.6944 I0.0 J-1.5875
G1 Y120.34
G1 Y118.0025 Z-1.2
G1 Y115.665 Z-1.8
G1 Y41.855
G1 Y39.5175 Z-1.2
G1 Y37.18 Z-1.8
G1 Y0.275
G3 X0.727 Y-1.3125 I1.5875 J0.0
G1 F1000.0 Z-1.9
G1 F2000.0 X29.2776
G3 X30.8651 Y0.275 I0.0 J1.5875
G1 Y8.6295
G1 Y10.967 Z-1.2
G1 Y13.3045 Z-1.9
G1 Y87.1144
G1 Y89.4519 Z-1.2
G1 Y91.7894 Z-1.9
G1 Y128.6944
G3 X29.2776 Y130.2819 I-1.5875 J0.0
G1 X0.727
G3 X-0.8605 Y128.6944 I0.0 J-1.5875
G1 Y120.34
G1 Y118.0025 Z-1.2
G1 Y115.665 Z-1.9
G1 Y41.855
G1 Y39.5175 Z-1.2
G1 Y37.18 Z-1.9
G1 Y0.275
G3 X0.727 Y-1.3125 I1.5875 J0.0
G1 F1000.0 Z-2.0
G1 F2000.0 X29.2776
G3 X30.8651 Y0.275 I0.0 J1.5875
G1 Y8.6295
G1 Y10.967 Z-1.2
G1 Y13.3045 Z-2.0
G1 Y87.1144
G1 Y89.4519 Z-1.2
G1 Y91.7894 Z-2.0
G1 Y128.6944
G3 X29.2776 Y130.2819 I-1.5875 J0.0
G1 X0.727
G3 X-0.8605 Y128.6944 I0.0 J-1.5875
G1 Y120.34
G1 Y118.0025 Z-1.2
G1 Y115.665 Z-2.0
G1 Y41.855
G1 Y39.5175 Z-1.2
G1 Y37.18 Z-2.0
G1 Y0.275
G3 X0.727 Y-1.3125 I1.5875 J0.0
G1 F1000.0 Z-2.1
G1 F2000.0 X29.2776
G3 X30.8651 Y0.275 I0.0 J1.5875
G1 Y8.6295
G1 Y10.967 Z-1.2
G1 Y13.3045 Z-2.1
G1 Y87.1144
G1 Y89.4519 Z-1.2
G1 Y91.7894 Z-2.1
G1 Y128.6944
G3 X29.2776 Y130.2819 I-1.5875 J0.0
G1 X0.727
G3 X-0.8605 Y128.6944 I0.0 J-1.5875
G1 Y120.34
G1 Y118.0025 Z-1.2
G1 Y115.665 Z-2.1
G1 Y41.855
G1 Y39.5175 Z-1.2
G1 Y37.18 Z-2.1
G1 Y0.275
G3 X0.727 Y-1.3125 I1.5875 J0.0
G1 F1000.0 Z-2.2
G1 F2000.0 X29.2776
G3 X30.8651 Y0.275 I0.0 J1.5875
G1 Y8.6295
G1 Y10.967 Z-1.2
G1 Y13.3045 Z-2.2
G1 Y87.1144
G1 Y89.4519 Z-1.2
G1 Y91.7894 Z-2.2
G1 Y128.6944
G3 X29.2776 Y130.2819 I-1.5875 J0.0
G1 X0.727
G3 X-0.8605 Y128.6944 I0.0 J-1.5875
G1 Y120.34
G1 Y118.0025 Z-1.2
G1 Y115.665 Z-2.2
G1 Y41.855
G1 Y39.5175 Z-1.2
G1 Y37.18 Z-2.2
G1 Y0.275
G3 X0.727 Y-1.3125 I1.5875 J0.0
G1 F1000.0 Z-2.3
G1 F2000.0 X29.2776
G3 X30.8651 Y0.275 I0.0 J1.5875
G1 Y8.6295
G1 Y10.967 Z-1.2
G1 Y13.3045 Z-2.3
G1 Y87.1144
G1 Y89.4519 Z-1.2
G1 Y91.7894 Z-2.3
G1 Y128.6944
G3 X29.2776 Y130.2819 I-1.5875 J0.0
G1 X0.727
G3 X-0.8605 Y128.6944 I0.0 J-1.5875
G1 Y120.34
G1 Y118.0025 Z-1.2
G1 Y115.665 Z-2.3
G1 Y41.855
G1 Y39.5175 Z-1.2
G1 Y37.18 Z-2.3
G1 Y0.275
G3 X0.727 Y-1.3125 I1.5875 J0.0
G1 F1000.0 Z-2.4
G1 F2000.0 X29.2776
G3 X30.8651 Y0.275 I0.0 J1.5875
G1 Y8.6295
G1 Y10.967 Z-1.2
G1 Y13.3045 Z-2.4
G1 Y87.1144
G1 Y89.4519 Z-1.2
G1 Y91.7894 Z-2.4
G1 Y128.6944
G3 X29.2776 Y130.2819 I-1.5875 J0.0
G1 X0.727
G3 X-0.8605 Y128.6944 I0.0 J-1.5875
G1 Y120.34
G1 Y118.0025 Z-1.2
G1 Y115.665 Z-2.4
G1 Y41.855
G1 Y39.5175 Z-1.2
G1 Y37.18 Z-2.4
G1 Y0.275
G3 X0.727 Y-1.3125 I1.5875 J0.0
G1 F1000.0 Z-2.5
G1 F2000.0 X29.2776
G3 X30.8651 Y0.275 I0.0 J1.5875
G1 Y8.6295
G1 Y10.967 Z-1.2
G1 Y13.3045 Z-2.5
G1 Y87.1144
G1 Y89.4519 Z-1.2
G1 Y91.7894 Z-2.5
G1 Y128.6944
G3 X29.2776 Y130.2819 I-1.5875 J0.0
G1 X0.727
G3 X-0.8605 Y128.6944 I0.0 J-1.5875
G1 Y120.34
G1 Y118.0025 Z-1.2
G1 Y115.665 Z-2.5
G1 Y41.855
G1 Y39.5175 Z-1.2
G1 Y37.18 Z-2.5
G1 Y0.275
G3 X0.727 Y-1.3125 I1.5875 J0.0
G1 F1000.0 Z-2.6
G1 F2000.0 X29.2776
G3 X30.8651 Y0.275 I0.0 J1.5875
G1 Y8.6295
G1 Y10.967 Z-1.2
G1 Y13.3045 Z-2.6
G1 Y87.1144
G1 Y89.4519 Z-1.2
G1 Y91.7894 Z-2.6
G1 Y128.6944
G3 X29.2776 Y130.2819 I-1.5875 J0.0
G1 X0.727
G3 X-0.8605 Y128.6944 I0.0 J-1.5875
G1 Y120.34
G1 Y118.0025 Z-1.2
G1 Y115.665 Z-2.6
G1 Y41.855
G1 Y39.5175 Z-1.2
G1 Y37.18 Z-2.6
G1 Y0.275
G3 X0.727 Y-1.3125 I1.5875 J0.0
G1 F1000.0 Z-2.7
G1 F2000.0 X29.2776
G3 X30.8651 Y0.275 I0.0 J1.5875
G1 Y8.6295
G1 Y10.967 Z-1.2
G1 Y13.3045 Z-2.7
G1 Y87.1144
G1 Y89.4519 Z-1.2
G1 Y91.7894 Z-2.7
G1 Y128.6944
G3 X29.2776 Y130.2819 I-1.5875 J0.0
G1 X0.727
G3 X-0.8605 Y128.6944 I0.0 J-1.5875
G1 Y120.34
G1 Y118.0025 Z-1.2
G1 Y115.665 Z-2.7
G1 Y41.855
G1 Y39.5175 Z-1.2
G1 Y37.18 Z-2.7
G1 Y0.275
G3 X0.727 Y-1.3125 I1.5875 J0.0
G1 F1000.0 Z-2.8
G1 F2000.0 X29.2776
G3 X30.8651 Y0.275 I0.0 J1.5875
G1 Y8.6295
G1 Y10.967 Z-1.2
G1 Y13.3045 Z-2.8
G1 Y87.1144
G1 Y89.4519 Z-1.2
G1 Y91.7894 Z-2.8
G1 Y128.6944
G3 X29.2776 Y130.2819 I-1.5875 J0.0
G1 X0.727
G3 X-0.8605 Y128.6944 I0.0 J-1.5875
G1 Y120.34
G1 Y118.0025 Z-1.2
G1 Y115.665 Z-2.8
G1 Y41.855
G1 Y39.5175 Z-1.2
G1 Y37.18 Z-2.8
G1 Y0.275
G3 X0.727 Y-1.3125 I1.5875 J0.0
G1 F1000.0 Z-2.9
G1 F2000.0 X29.2776
G3 X30.8651 Y0.275 I0.0 J1.5875
G1 Y8.6295
G1 Y10.967 Z-1.2
G1 Y13.3045 Z-2.9
G1 Y87.1144
G1 Y89.4519 Z-1.2
G1 Y91.7894 Z-2.9
G1 Y128.6944
G3 X29.2776 Y130.2819 I-1.5875 J0.0
G1 X0.727
G3 X-0.8605 Y128.6944 I0.0 J-1.5875
G1 Y120.34
G1 Y118.0025 Z-1.2
G1 Y115.665 Z-2.9
G1 Y41.855
G1 Y39.5175 Z-1.2
G1 Y37.18 Z-2.9
G1 Y0.275
G3 X0.727 Y-1.3125 I1.5875 J0.0
G1 F1000.0 Z-3.0
G1 F2000.0 X29.2776
G3 X30.8651 Y0.275 I0.0 J1.5875
G1 Y8.6295
G1 Y10.967 Z-1.2
G1 Y13.3045 Z-3.0
G1 Y87.1144
G1 Y89.4519 Z-1.2
G1 Y91.7894 Z-3.0
G1 Y128.6944
G3 X29.2776 Y130.2819 I-1.5875 J0.0
G1 X0.727
G3 X-0.8605 Y128.6944 I0.0 J-1.5875
G1 Y120.34
G1 Y118.0025 Z-1.2
G1 Y115.665 Z-3.0
G1 Y41.855
G1 Y39.5175 Z-1.2
G1 Y37.18 Z-3.0
G1 Y0.275
G3 X0.727 Y-1.3125 I1.5875 J0.0
G1 F1000.0 Z-3.1
G1 F2000.0 X29.2776
G3 X30.8651 Y0.275 I0.0 J1.5875
G1 Y8.6295
G1 Y10.967 Z-1.2
G1 Y13.3045 Z-3.1
G1 Y87.1144
G1 Y89.4519 Z-1.2
G1 Y91.7894 Z-3.1
G1 Y128.6944
G3 X29.2776 Y130.2819 I-1.5875 J0.0
G1 X0.727
G3 X-0.8605 Y128.6944 I0.0 J-1.5875
G1 Y120.34
G1 Y118.0025 Z-1.2
G1 Y115.665 Z-3.1
G1 Y41.855
G1 Y39.5175 Z-1.2
G1 Y37.18 Z-3.1
G1 Y0.275
G3 X0.727 Y-1.3125 I1.5875 J0.0
G1 F1000.0 Z-3.2
G1 F2000.0 X29.2776
G3 X30.8651 Y0.275 I0.0 J1.5875
G1 Y8.6295
G1 Y10.967 Z-1.2
G1 Y13.3045 Z-3.2
G1 Y87.1144
G1 Y89.4519 Z-1.2
G1 Y91.7894 Z-3.2
G1 Y128.6944
G3 X29.2776 Y130.2819 I-1.5875 J0.0
G1 X0.727
G3 X-0.8605 Y128.6944 I0.0 J-1.5875
G1 Y120.34
G1 Y118.0025 Z-1.2
G1 Y115.665 Z-3.2
G1 Y41.855
G1 Y39.5175 Z-1.2
G1 Y37.18 Z-3.2
G1 Y0.275
G3 X0.727 Y-1.3125 I1.5875 J0.0
G0 Z3.0
M5
M30
