(/Applications/pcbgcode.repo/pcb-gcode.ulp)
(Copyright 2005 - 2012 by John Johnson)
(See readme.txt for licensing terms.)
(This file generated from the board:)
(.../808-MidTom-MidConga/eagle/808_mt.brd)
(Current profile is .../pcbgcode.repo/profiles/mach.pp  )
(This file generated 4/18/16 9:22 PM)
(Settings from pcb-machine.h)
(spindle on time = 0.0000)
(spindle speed = 20000.0000)
(tool change at 0.0000  0.0000  1.5000  )
(feed rate xy = F0     )
(feed rate z  = F20    )
(Z Axis Settings)
(  High     Up        Down     Drill)
(0.2500  	0.0500  	-0.0035 	-0.0730 )
(Settings from pcb-defaults.h)
(isolate min = 0.0050)
(isolate max = 0.0200)
(isolate step = 0.0015)
(Generated bottom outlines, bottom drill, )
(Unit of measure: inch)
( Tool|       Size       |  Min Sub |  Max Sub |   Count )
( T01 | 0.800mm 0.0315in | 0.0000in | 0.0000in |       0 )
( T02 | 0.813mm 0.0320in | 0.0000in | 0.0000in |       0 )
( T03 | 0.900mm 0.0354in | 0.0000in | 0.0000in |       0 )
( T04 | 1.000mm 0.0394in | 0.0000in | 0.0000in |       0 )
( T05 | 1.016mm 0.0400in | 0.0000in | 0.0000in |       0 )
( T06 | 1.200mm 0.0472in | 0.0000in | 0.0000in |       0 )
( T07 | 1.300mm 0.0512in | 0.0000in | 0.0000in |       0 )
( T08 | 1.372mm 0.0540in | 0.0000in | 0.0000in |       0 )
(Inch Mode)
G20
(Absolute Coordinates)
G90
S20000
G00 Z0.2500  
G00 X0.0000  Y0.0000  
M03
G04 P0.000000
M05
G00 Z1.5000  
M06 T01  ; 0.0315  
G01 Z0.0000  F20    
M06 
G00 Z0.0500  
M03
G04 P0.000000
G82 X-1.3300 Y1.1100  Z-0.0730 F20    R0.0500  P0.010000
G82 X-1.5250 Y1.1450  
G82 X-1.4800 Y0.8287  
G82 X-1.4800 Y0.6713  
G82 X-2.0700 Y1.2900  
G82 X-2.3300 Y1.2900  
G82 X-2.0300 Y2.0711  
G82 X-2.0300 Y2.2089  
G82 X-1.8900 Y2.0600  
G82 X-1.5600 Y2.0600  
G82 X-1.3550 Y2.0037  
G82 X-1.3550 Y1.8463  
G82 X-2.6111 Y0.4500  
G82 X-2.7489 Y0.4500  
M05
G00 Z1.5000  
G00 X0.0000  Y0.0000  
M06 T02  ; 0.0320  
G01 Z0.0000  F20    
M06 
G00 Z0.0500  
M03
G04 P0.000000
G82 X-0.1300 Y1.1000  Z-0.0730 F20    R0.0500  P0.010000
G82 X-0.2300 Y1.1000  
G82 X-0.2300 Y0.9500  
G82 X-0.3600 Y1.0000  
G82 X-0.5600 Y1.0000  
G82 X-0.5600 Y1.2000  
G82 X-0.4500 Y1.2500  
G82 X-0.4500 Y1.4500  
G82 X-0.5600 Y1.5000  
G82 X-0.7500 Y1.5000  
G82 X-0.9300 Y1.5000  
G82 X-1.0800 Y1.4500  
G82 X-1.0800 Y1.3500  
G82 X-1.2300 Y1.4000  
G82 X-1.3500 Y1.5000  
G82 X-1.2500 Y1.5800  
G82 X-1.1750 Y1.6300  
G82 X-1.2500 Y1.6800  
G82 X-1.0800 Y1.7500  
G82 X-1.1800 Y1.8500  
G82 X-0.8800 Y1.8500  
G82 X-0.6800 Y1.9500  
G82 X-0.3800 Y1.9500  
G82 X-0.2300 Y1.6500  
G82 X-0.1550 Y1.6000  
G82 X-0.2300 Y1.5500  
G82 X-0.2300 Y1.4000  
G82 X-0.1300 Y1.4000  
G82 X-0.7500 Y1.2000  
G82 X-0.7800 Y1.1000  
G82 X-0.9300 Y1.2000  
G82 X-1.0800 Y1.1500  
G82 X-1.2300 Y1.1000  
G82 X-1.3100 Y1.0250  
G82 X-1.3500 Y1.2000  
G82 X-1.6100 Y1.0250  
G82 X-1.3600 Y0.8000  
G82 X-1.0600 Y0.8000  
G82 X-0.9800 Y0.9000  
G82 X-0.9050 Y0.9500  
G82 X-0.9800 Y1.0000  
G82 X-0.7800 Y0.8000  
G82 X-0.9300 Y0.5000  
G82 X-1.0500 Y0.3500  
G82 X-1.1500 Y0.3500  
G82 X-1.2300 Y0.5000  
G82 X-1.4500 Y0.3500  
G82 X-0.7500 Y0.3500  
G82 X-0.2300 Y0.6500  
G82 X-1.6100 Y1.4100  
G82 X-1.7400 Y1.5300  
G82 X-1.8400 Y1.4900  
G82 X-1.9100 Y1.4100  
G82 X-1.9800 Y1.5300  
G82 X-2.0800 Y1.5300  
G82 X-2.1800 Y1.5300  
G82 X-2.2800 Y1.5300  
G82 X-2.4300 Y1.5100  
G82 X-2.5500 Y1.5000  
G82 X-2.6600 Y1.4700  
G82 X-2.5500 Y1.7000  
G82 X-2.6600 Y1.7700  
G82 X-2.4300 Y1.8100  
G82 X-2.2800 Y1.8300  
G82 X-2.1800 Y1.8300  
G82 X-2.0800 Y1.8300  
G82 X-1.9800 Y1.8300  
G82 X-1.9400 Y1.9500  
G82 X-1.8400 Y1.7900  
G82 X-1.7400 Y1.7300  
G82 X-1.8800 Y2.1700  
G82 X-1.5800 Y2.1700  
G82 X-2.2200 Y2.2200  
G82 X-2.2200 Y2.0200  
G82 X-2.2400 Y1.9500  
G82 X-2.9800 Y1.7500  
G82 X-3.0800 Y1.7500  
G82 X-3.1800 Y1.7500  
G82 X-3.2800 Y1.7500  
G82 X-3.2800 Y1.4500  
G82 X-3.1800 Y1.4500  
G82 X-3.0800 Y1.4500  
G82 X-2.9800 Y1.4500  
G82 X-3.0900 Y1.2800  
G82 X-3.2300 Y1.1500  
G82 X-3.3900 Y1.2800  
G82 X-2.9300 Y1.1500  
G82 X-2.6800 Y1.1000  
G82 X-2.4800 Y1.1000  
G82 X-2.3100 Y1.0800  
G82 X-2.3100 Y1.1800  
G82 X-2.0100 Y1.1800  
G82 X-2.0100 Y1.0800  
G82 X-3.0800 Y0.8000  
G82 X-3.0300 Y0.6400  
G82 X-3.0300 Y0.5600  
G82 X-3.3800 Y0.8000  
M05
G00 Z1.5000  
G00 X0.0000  Y0.0000  
M06 T03  ; 0.0354  
G01 Z0.0000  F20    
M06 
G00 Z0.0500  
M03
G04 P0.000000
G82 X-0.5800 Y1.6500  Z-0.0730 F20    R0.0500  P0.010000
G82 X-0.8800 Y1.6500  
G82 X-1.5100 Y2.1600  
G82 X-1.5100 Y2.4600  
G82 X-1.1300 Y0.7000  
G82 X-1.1300 Y0.6000  
G82 X-0.8300 Y0.6000  
G82 X-0.8300 Y0.7000  
M05
G00 Z1.5000  
G00 X0.0000  Y0.0000  
M06 T04  ; 0.0394  
G01 Z0.0000  F20    
M06 
G00 Z0.0500  
M03
G04 P0.000000
G82 X-0.0800 Y0.3500  Z-0.0730 F20    R0.0500  P0.010000
G82 X-0.1800 Y0.3500  
G82 X-3.4800 Y1.0000  
G82 X-3.5800 Y1.0000  
M05
G00 Z1.5000  
G00 X0.0000  Y0.0000  
M06 T05  ; 0.0400  
G01 Z0.0000  F20    
M06 
G00 Z0.0500  
M03
G04 P0.000000
G82 X-0.4000 Y1.7500  Z-0.0730 F20    R0.0500  P0.010000
G82 X-0.4800 Y2.2000  
G82 X-0.4800 Y2.3000  
G82 X-0.5800 Y2.3000  
G82 X-0.5800 Y2.2000  
G82 X-0.6800 Y2.2000  
G82 X-0.6800 Y2.3000  
G82 X-0.7800 Y2.3000  
G82 X-0.7800 Y2.2000  
G82 X-0.8800 Y2.2000  
G82 X-0.8800 Y2.3000  
G82 X-0.9800 Y2.3000  
G82 X-0.9800 Y2.2000  
G82 X-1.0800 Y2.2000  
G82 X-1.0800 Y2.3000  
G82 X-1.1800 Y2.3000  
G82 X-1.1800 Y2.2000  
G82 X-0.8200 Y1.9600  
M05
G00 Z1.5000  
G00 X0.0000  Y0.0000  
M06 T06  ; 0.0472  
G01 Z0.0000  F20    
M06 
G00 Z0.0500  
M03
G04 P0.000000
G82 X-0.9331 Y0.1500  Z-0.0730 F20    R0.0500  P0.010000
G82 X-1.1300 Y0.1500  
G82 X-1.3269 Y0.1500  
G82 X-2.5831 Y0.1500  
G82 X-2.7800 Y0.1500  
G82 X-2.9769 Y0.1500  
M05
G00 Z1.5000  
G00 X0.0000  Y0.0000  
M06 T07  ; 0.0512  
G01 Z0.0000  F20    
M06 
G00 Z0.0500  
M03
G04 P0.000000
G82 X-0.4500 Y0.0980  Z-0.0730 F20    R0.0500  P0.010000
G82 X-0.4831 Y0.0984  
G82 X-0.5170 Y0.0980  
G82 X-0.6880 Y0.4980  
G82 X-0.6879 Y0.5315  
G82 X-0.6880 Y0.5650  
G82 X-0.5160 Y0.6180  
G82 X-0.4831 Y0.6181  
G82 X-0.4500 Y0.6180  
G82 X-3.4000 Y0.6180  
G82 X-3.4331 Y0.6181  
G82 X-3.4660 Y0.6180  
G82 X-3.6380 Y0.5650  
G82 X-3.6379 Y0.5315  
G82 X-3.6380 Y0.4980  
G82 X-3.4670 Y0.0980  
G82 X-3.4331 Y0.0984  
G82 X-3.4000 Y0.0980  
M05
G00 Z1.5000  
G00 X0.0000  Y0.0000  
M06 T08  ; 0.0540  
G01 Z0.0000  F20    
M06 
G00 Z0.0500  
M03
G04 P0.000000
G82 X-1.6750 Y0.6150  Z-0.0730 F20    R0.0500  P0.010000
G82 X-1.6750 Y0.7646  
G82 X-1.6750 Y0.9142  
G82 X-1.8650 Y0.9142  
G82 X-1.8650 Y0.7646  
G82 X-1.8650 Y0.6150  
G82 X-2.0550 Y0.6150  
G82 X-2.0550 Y0.7646  
G82 X-2.0550 Y0.9142  
G82 X-2.2450 Y0.9142  
G82 X-2.2450 Y0.7646  
G82 X-2.2450 Y0.6150  
G82 X-2.0584 Y0.0500  
G82 X-1.8616 Y0.0500  
T01 
G00 Z0.2500  
M05
M02
